craft2/public/assets/svgicons/branches/beerpack-01.svg

<svg xmlns="http://www.w3.org/2000/svg" width="44.683" height="43.333" viewBox="0 0 44.683 43.333"><g stroke="#231F20" stroke-width="1.5" stroke-linecap="round" stroke-linejoin="round" stroke-miterlimit="2.613" fill="none"><path d="M6.643 22.428v-1.604c0-6.834 4.529-5.732 4.707-17.058h-.446v-3.016h6.337v3.015h-.446c.178 11.326 4.707 10.224 4.707 17.058v1.604h-14.859z"/><path d="M10.263.751h7.618"/><path d="M23.182 22.428v-1.604c0-6.834 4.529-5.732 4.707-17.058h-.446v-3.016h6.337v3.015h-.446c.178 11.326 4.707 10.224 4.707 17.058v1.604h-14.859z"/><path d="M26.802.751h7.618"/><path d="M.75 22.428h43.183v18.056c0 1.16-.94 2.1-2.1 2.1h-38.983c-1.16 0-2.1-.94-2.1-2.1v-18.056z"/><path d="M26.821 29.004h17.112v7.003h-17.112c.756-.965 1.206-2.181 1.206-3.502 0-1.32-.45-2.536-1.206-3.501zm-26.071 0h17.112c-.755.965-1.206 2.181-1.206 3.502 0 1.321.451 2.536 1.206 3.502h-17.112v-7.004z"/><circle cx="22.342" cy="32.506" r="5.686"/><path d="M.75 22.428h4.967v-7.535h-2.867c-1.16 0-2.1.94-2.1 2.1v5.435z"/><path d="M38.966 22.428h4.967v-5.436c0-1.16-.94-2.1-2.1-2.1h-2.867v7.536z"/></g></svg>

<?xml version="1.0" encoding="utf-8"?>
<!-- Generator: Adobe Illustrator 17.0.0, SVG Export Plug-In . SVG Version: 6.00 Build 0)  -->
<!DOCTYPE svg PUBLIC "-//W3C//DTD SVG 1.1//EN" "http://www.w3.org/Graphics/SVG/1.1/DTD/svg11.dtd">
<svg version="1.1" id="Layer_1" xmlns="http://www.w3.org/2000/svg" xmlns:xlink="http://www.w3.org/1999/xlink" x="0px" y="0px"
	 width="44.683px" height="43.333px" viewBox="0 0 44.683 43.333" enable-background="new 0 0 44.683 43.333" xml:space="preserve">
<g>
	
		<path fill="none" stroke="#231F20" stroke-width="1.5001" stroke-linecap="round" stroke-linejoin="round" stroke-miterlimit="2.6131" d="
		M6.643,22.428v-1.604c0-6.834,4.529-5.732,4.707-17.058h-0.446V0.75h6.337v3.015h-0.446c0.178,11.326,4.707,10.224,4.707,17.058
		v1.604H6.643z"/>
	
		<line fill="none" stroke="#231F20" stroke-width="1.5001" stroke-linecap="round" stroke-linejoin="round" stroke-miterlimit="2.6131" x1="10.263" y1="0.751" x2="17.881" y2="0.751"/>
	
		<path fill="none" stroke="#231F20" stroke-width="1.5001" stroke-linecap="round" stroke-linejoin="round" stroke-miterlimit="2.6131" d="
		M23.182,22.428v-1.604c0-6.834,4.529-5.732,4.707-17.058h-0.446V0.75h6.337v3.015h-0.446c0.178,11.326,4.707,10.224,4.707,17.058
		v1.604H23.182z"/>
	
		<line fill="none" stroke="#231F20" stroke-width="1.5001" stroke-linecap="round" stroke-linejoin="round" stroke-miterlimit="2.6131" x1="26.802" y1="0.751" x2="34.42" y2="0.751"/>
	
		<path fill="none" stroke="#231F20" stroke-width="1.5001" stroke-linecap="round" stroke-linejoin="round" stroke-miterlimit="2.6131" d="
		M0.75,22.428h43.183v18.056c0,1.16-0.94,2.1-2.1,2.1H2.85c-1.16,0-2.1-0.94-2.1-2.1V22.428z"/>
	
		<path fill="none" stroke="#231F20" stroke-width="1.5001" stroke-linecap="round" stroke-linejoin="round" stroke-miterlimit="2.6131" d="
		M26.821,29.004h17.112v7.003H26.821c0.756-0.965,1.206-2.181,1.206-3.502C28.027,31.185,27.577,29.969,26.821,29.004z M0.75,29.004
		h17.112c-0.755,0.965-1.206,2.181-1.206,3.502c0,1.321,0.451,2.536,1.206,3.502H0.75V29.004z"/>
	
		<circle fill="none" stroke="#231F20" stroke-width="1.5001" stroke-linecap="round" stroke-linejoin="round" stroke-miterlimit="2.6131" cx="22.342" cy="32.506" r="5.686"/>
	
		<path fill="none" stroke="#231F20" stroke-width="1.5001" stroke-linecap="round" stroke-linejoin="round" stroke-miterlimit="2.6131" d="
		M0.75,22.428h4.967v-7.535H2.85c-1.16,0-2.1,0.94-2.1,2.1V22.428z"/>
	
		<path fill="none" stroke="#231F20" stroke-width="1.5001" stroke-linecap="round" stroke-linejoin="round" stroke-miterlimit="2.6131" d="
		M38.966,22.428h4.967v-5.436c0-1.16-0.94-2.1-2.1-2.1h-2.867V22.428z"/>
</g>
</svg>
